X: 6828
T: Charlie Hunter
R: jig
M: 6/8
K: Dmajor
|:DFA GBd|Adf a2 g|fed Bcd|ecA GFE|
DFA GBd|Adf a2 g|fef gec|1 edc dAF:|2 edc dfg||
afd dcd|BGG G2 F|E^GB efd|cAA Aag|
fdA FDF|GB/c/d g2 g|fef gec|edc dfg|
afd dcd|BGG G2 a|b^ge e^de|cAA a2 g|
fdA FDF|GBd g2 g|fgf gec|edd d3||

